dist/icons/svgs/building-solid.svg

<svg xmlns="http://www.w3.org/2000/svg" width="24" height="24" fill="currentcolor" class="icon-building-solid" viewBox="0 0 24 24">
  <path d="M6.875 2H18.125C19.1406 2 20 2.85938 20 3.875V20.125C20 21.1797 19.1406 22 18.125 22H14.375V18.875C14.375 17.8594 13.5156 17 12.5 17C11.4453 17 10.625 17.8594 10.625 18.875V22H6.875C5.82031 22 5 21.1797 5 20.125V3.875C5 2.85938 5.82031 2 6.875 2ZM7.5 11.375V12.625C7.5 12.9766 7.77344 13.25 8.125 13.25H9.375C9.6875 13.25 10 12.9766 10 12.625V11.375C10 11.0625 9.6875 10.75 9.375 10.75H8.125C7.77344 10.75 7.5 11.0625 7.5 11.375ZM11.875 10.75C11.5234 10.75 11.25 11.0625 11.25 11.375V12.625C11.25 12.9766 11.5234 13.25 11.875 13.25H13.125C13.4375 13.25 13.75 12.9766 13.75 12.625V11.375C13.75 11.0625 13.4375 10.75 13.125 10.75H11.875ZM15 11.375V12.625C15 12.9766 15.2734 13.25 15.625 13.25H16.875C17.1875 13.25 17.5 12.9766 17.5 12.625V11.375C17.5 11.0625 17.1875 10.75 16.875 10.75H15.625C15.2734 10.75 15 11.0625 15 11.375ZM8.125 5.75C7.77344 5.75 7.5 6.0625 7.5 6.375V7.625C7.5 7.97656 7.77344 8.25 8.125 8.25H9.375C9.6875 8.25 10 7.97656 10 7.625V6.375C10 6.0625 9.6875 5.75 9.375 5.75H8.125ZM11.25 6.375V7.625C11.25 7.97656 11.5234 8.25 11.875 8.25H13.125C13.4375 8.25 13.75 7.97656 13.75 7.625V6.375C13.75 6.0625 13.4375 5.75 13.125 5.75H11.875C11.5234 5.75 11.25 6.0625 11.25 6.375ZM15.625 5.75C15.2734 5.75 15 6.0625 15 6.375V7.625C15 7.97656 15.2734 8.25 15.625 8.25H16.875C17.1875 8.25 17.5 7.97656 17.5 7.625V6.375C17.5 6.0625 17.1875 5.75 16.875 5.75H15.625Z"/>
</svg>

<svg xmlns="http://www.w3.org/2000/svg" width="24" height="24" fill="currentColor" class="icon-building-solid" viewBox="0 0 24 24">
  <path d="M6.875 2h11.25C19.141 2 20 2.86 20 3.875v16.25C20 21.18 19.14 22 18.125 22h-3.75v-3.125c0-1.016-.86-1.875-1.875-1.875-1.055 0-1.875.86-1.875 1.875V22h-3.75A1.85 1.85 0 0 1 5 20.125V3.875C5 2.859 5.82 2 6.875 2m.625 9.375v1.25c0 .352.273.625.625.625h1.25a.64.64 0 0 0 .625-.625v-1.25c0-.312-.312-.625-.625-.625h-1.25a.64.64 0 0 0-.625.625m4.375-.625a.64.64 0 0 0-.625.625v1.25c0 .352.273.625.625.625h1.25a.64.64 0 0 0 .625-.625v-1.25c0-.312-.312-.625-.625-.625zm3.125.625v1.25c0 .352.273.625.625.625h1.25a.64.64 0 0 0 .625-.625v-1.25c0-.312-.312-.625-.625-.625h-1.25a.64.64 0 0 0-.625.625M8.125 5.75a.64.64 0 0 0-.625.625v1.25c0 .352.273.625.625.625h1.25A.64.64 0 0 0 10 7.625v-1.25c0-.312-.312-.625-.625-.625zm3.125.625v1.25c0 .352.273.625.625.625h1.25a.64.64 0 0 0 .625-.625v-1.25c0-.312-.312-.625-.625-.625h-1.25a.64.64 0 0 0-.625.625m4.375-.625a.64.64 0 0 0-.625.625v1.25c0 .352.273.625.625.625h1.25a.64.64 0 0 0 .625-.625v-1.25c0-.312-.312-.625-.625-.625z"/>
</svg>
